favicon.svg

<svg width="16" height="16" viewBox="0 0 16 16" fill="none" xmlns="http://www.w3.org/2000/svg">
  <rect width="16" height="16" fill="#1F2630"/>
  <path d="M8 12V4H10.1086C10.8179 4 11.4217 4.11957 11.9201 4.3587C12.4185 4.59783 12.8179 4.91667 13.1182 5.31522C13.4249 5.71377 13.6486 6.15942 13.7891 6.65217C13.9297 7.14493 14 7.6413 14 8.1413C14 8.73551 13.9042 9.27174 13.7125 9.75C13.5272 10.221 13.2716 10.6268 12.9457 10.9674C12.6198 11.3007 12.2428 11.558 11.8147 11.7391C11.3866 11.913 10.9329 12 10.4537 12H8ZM9.38978 10.4783H10.2141C10.5655 10.4783 10.885 10.4275 11.1725 10.3261C11.4601 10.2174 11.7061 10.0616 11.9105 9.8587C12.1214 9.6558 12.2812 9.40217 12.3898 9.09783C12.5048 8.78623 12.5623 8.43116 12.5623 8.03261C12.5623 7.51087 12.4856 7.08696 12.3323 6.76087C12.1853 6.42754 12 6.17029 11.7764 5.98913C11.5591 5.80797 11.3355 5.68478 11.1054 5.61957C10.8754 5.5471 10.6805 5.51087 10.5208 5.51087H9.38978V10.4783Z" fill="white"/>
  <path d="M4.15139 4C4.91501 4 5.52258 4.17029 5.9741 4.51087C6.42563 4.8442 6.65139 5.3442 6.65139 6.01087C6.65139 6.50362 6.53851 6.91667 6.31275 7.25C6.09363 7.57609 5.7915 7.82246 5.40637 7.98913C5.02789 8.14855 4.59296 8.22826 4.10159 8.22826L3.87251 7.38043C4.47676 7.38043 5.01129 7.47101 5.4761 7.65217C5.94754 7.83333 6.31939 8.0942 6.59163 8.43478C6.86388 8.76812 7 9.17029 7 9.6413C7 10.0761 6.92696 10.4457 6.78088 10.75C6.64143 11.0471 6.44887 11.2899 6.20319 11.4783C5.96414 11.6594 5.6919 11.7935 5.38645 11.8804C5.08101 11.9601 4.7656 12 4.44024 12H2V4H4.15139ZM4.32072 7.27174C4.60624 7.27174 4.81541 7.17754 4.94821 6.98913C5.08765 6.80072 5.15737 6.58696 5.15737 6.34783C5.15737 6.07246 5.07105 5.86594 4.89841 5.72826C4.7324 5.59058 4.50664 5.52174 4.22112 5.52174H3.44422V7.27174H4.32072ZM4.37052 10.5326C4.583 10.5326 4.77556 10.5036 4.94821 10.4457C5.12085 10.3804 5.25697 10.2826 5.35657 10.1522C5.45618 10.0145 5.50598 9.8442 5.50598 9.6413C5.50598 9.40942 5.44622 9.23551 5.32669 9.11957C5.20717 8.99638 5.05113 8.91304 4.85857 8.86957C4.67264 8.81884 4.47676 8.79348 4.27092 8.79348H3.44422V10.5326H4.37052Z" fill="white"/>
</svg>

<svg xmlns="http://www.w3.org/2000/svg" width="16" height="16" fill="none"><path fill="#1F2630" d="M0 0h16v16H0z"/><path fill="#fff" d="M8 12V4h2.1c.72 0 1.32.12 1.82.36s.9.56 1.2.96c.3.4.53.84.67 1.33.14.5.21 1 .21 1.5 0 .59-.1 1.12-.29 1.6A3.44 3.44 0 0 1 10.45 12H8Zm1.39-1.52h.82c.36 0 .67-.05.96-.15.29-.11.54-.27.74-.47.21-.2.37-.46.48-.76.11-.31.17-.67.17-1.07a3 3 0 0 0-.23-1.27c-.14-.33-.33-.59-.55-.77-.22-.18-.44-.3-.67-.37a2 2 0 0 0-.59-.1H9.4v4.96ZM4.15 4c.77 0 1.37.17 1.82.51.46.33.68.83.68 1.5 0 .5-.11.9-.34 1.24-.22.33-.52.57-.9.74-.38.16-.82.24-1.3.24l-.24-.85c.6 0 1.14.1 1.6.27.48.18.85.44 1.12.78.27.34.41.74.41 1.21 0 .44-.07.8-.22 1.11-.14.3-.33.54-.58.73-.24.18-.5.31-.81.4-.3.08-.62.12-.95.12H2V4h2.15Zm.17 3.27c.29 0 .5-.1.63-.28.14-.19.2-.4.2-.64 0-.28-.08-.48-.25-.62-.17-.14-.4-.2-.68-.2h-.78v1.74h.88Zm.05 3.26c.21 0 .4-.03.58-.08a.9.9 0 0 0 .4-.3c.1-.14.16-.3.16-.5 0-.24-.06-.41-.18-.53a.91.91 0 0 0-.47-.25 2.22 2.22 0 0 0-.59-.08h-.83v1.74h.93Z"/></svg>
